img/benefits/group-4.svg

<svg width="27" height="33" viewBox="0 0 27 33" fill="none" xmlns="http://www.w3.org/2000/svg">
<path d="M13.1966 33C13.3906 33 13.5902 32.9544 13.7956 32.8631C14.001 32.7718 14.1779 32.6862 14.3262 32.6063C16.6426 31.1686 18.5796 29.9448 20.1372 28.9349C21.6948 27.9251 22.9328 26.9894 23.8514 26.1279C24.77 25.2663 25.4232 24.362 25.8112 23.4149C26.1992 22.4678 26.3932 21.3439 26.3932 20.043V7.20591C26.3932 6.24741 26.242 5.5542 25.9396 5.1263C25.6372 4.69839 25.0296 4.30757 24.1167 3.95384C23.4549 3.71421 22.8045 3.46603 22.1655 3.20928C21.5265 2.95254 20.8846 2.7015 20.2399 2.45617C19.5952 2.21084 18.9533 1.96266 18.3143 1.71162C17.6753 1.46058 17.0306 1.21525 16.3802 0.975622C15.7298 0.735996 15.0794 0.502075 14.4289 0.273859C14.2007 0.193983 13.9925 0.128371 13.8042 0.0770228C13.6159 0.0256743 13.4134 0 13.1966 0C12.9912 0 12.7915 0.0256743 12.5975 0.0770228C12.4035 0.128371 12.1981 0.193983 11.9813 0.273859C11.3309 0.513485 10.6805 0.755965 10.0301 1.0013C9.37967 1.24663 8.73211 1.49481 8.0874 1.74585C7.44269 1.99689 6.79798 2.24507 6.15327 2.4904C5.50856 2.73574 4.8667 2.98107 4.2277 3.2264C3.58869 3.47173 2.93828 3.71421 2.27645 3.95384C1.36359 4.29616 0.755965 4.68413 0.453579 5.11774C0.151193 5.55135 0 6.24741 0 7.20591V20.043C0 21.3439 0.199689 22.4593 0.599066 23.3893C0.998444 24.3192 1.66027 25.2121 2.58454 26.0679C3.50882 26.9238 4.74689 27.8623 6.29876 28.8836C7.85062 29.9048 9.77905 31.1457 12.084 32.6063C12.221 32.6862 12.3921 32.7718 12.5975 32.8631C12.8029 32.9544 13.0026 33 13.1966 33Z" fill="#0037FC"/>
<path d="M11.3827 23.7398C11.531 23.7398 11.6736 23.6714 11.8106 23.5344L21.0876 9.17396C21.1104 9.13973 21.1303 9.09408 21.1475 9.03703C21.1646 8.97997 21.1731 8.92863 21.1731 8.88298C21.1731 8.78029 21.1303 8.68329 21.0448 8.59201C20.9592 8.50072 20.8593 8.45508 20.7452 8.45508C20.6197 8.45508 20.4828 8.53495 20.3344 8.6947L11.3656 22.593L6.26494 16.7393C6.21929 16.6708 6.16224 16.6223 6.09377 16.5938C6.02531 16.5653 5.95114 16.551 5.87126 16.551C5.75716 16.551 5.65731 16.591 5.57173 16.6708C5.48615 16.7507 5.44336 16.8534 5.44336 16.9789C5.44336 17.0816 5.49471 17.2072 5.59741 17.3555L10.9548 23.5344C11.0232 23.6029 11.0888 23.6542 11.1516 23.6885C11.2144 23.7227 11.2914 23.7398 11.3827 23.7398Z" fill="white"/>
</svg>

<svg width="27" height="33" fill="none" xmlns="http://www.w3.org/2000/svg"><path d="M13.197 33c.194 0 .393-.046.599-.137.205-.091.382-.177.53-.257a357.703 357.703 0 005.811-3.671c1.558-1.01 2.796-1.946 3.714-2.807.919-.862 1.572-1.766 1.96-2.713.388-.947.582-2.071.582-3.372V7.206c0-.959-.151-1.652-.453-2.08-.303-.428-.91-.818-1.823-1.172a60.27 60.27 0 01-1.951-.745 112.19 112.19 0 00-1.926-.753 192.48 192.48 0 01-1.926-.744A96.975 96.975 0 0016.38.976c-.65-.24-1.3-.474-1.951-.702a9.373 9.373 0 00-.625-.197A2.302 2.302 0 0013.197 0c-.206 0-.405.026-.6.077a6.758 6.758 0 00-.616.197 211.96 211.96 0 00-3.894 1.472c-.644.25-1.289.5-1.934.744l-1.925.736c-.64.246-1.29.488-1.952.728-.912.342-1.52.73-1.822 1.164C.15 5.55 0 6.248 0 7.206v12.837c0 1.3.2 2.416.6 3.346.398.93 1.06 1.823 1.985 2.679.924.856 2.162 1.794 3.714 2.816a411.302 411.302 0 005.785 3.722c.137.08.308.166.514.257.205.091.405.137.599.137z" fill="#0037FC"/><path d="M11.383 23.74c.148 0 .29-.069.428-.206l9.277-14.36a.52.52 0 00.06-.137.542.542 0 00.025-.154c0-.103-.043-.2-.128-.291a.399.399 0 00-.3-.137c-.125 0-.262.08-.41.24l-8.97 13.898-5.1-5.854a.38.38 0 00-.171-.145.573.573 0 00-.223-.043.425.425 0 00-.428.428c0 .103.052.228.154.377l5.358 6.178c.068.069.134.12.197.155.062.034.14.05.23.05z" fill="#fff"/></svg>
